X:1
T:Title
%%score { ( 1 4 ) | ( 2 3 ) }
L:1/8
Q:1/4=110
M:3/4
K:Bb
V:1 treble nm="Grand Piano"
V:4 treble 
V:2 bass 
V:3 bass 
V:1
 B,2 D3 F | B4 c2 | d2 [FB]2 c2 | d2 B2 [FA]2 | [EG]2 [Ge]2 [Gd]2 | [Gc]4 [GB]2 | A6- | A4 z2 | %8
w: Chas.~H.~Gabriel * *||||||||
 c2 c2 c2 | [=Ec]4 .[CEA]2 | [CFA]2 [Fc]2 [=EG]2 | [FA]2 [Fc]2 [Fd]2 | [CFc]4 [DFB]2 | %13
w: |||||
 [CFA]4 [B,=EG]2 | [A,CF]6- | [A,CF]4 z2 | [Fd]2 [DB]3 [Ec] | d4 [Ge]2 | z2 B4- | B4 z2 | %20
w: |||||||
 [B,GB]4 [B,FB]2 | [Fe]4 [Fd]2 | c6- | c4 z2 | [Gc]2 [GB]2 [Gc]2 | [^Fd]4 [DFA]2 | ^F2 G2 A2 | %27
w: |||||||
 [DB]2- [D_AB]2 [EGB]2 | [Ff]4 [Ge]2 | [Fd]4 [Ec]2 | [DB]6- | [DB]4 z2 |] %32
w: |||||
V:2
 B,,2 D,3 F, | B,4 [F,A,F]2 | [B,F]2 [D,B,]2[K:treble] [F,A,F]2 | [B,F]2[K:bass] [F,DF]2 [D,B,]2 | %4
 [E,B,]2 [C,C]2 [D,=B,]2 | [E,C]4 [=E,C]2 | [F,CF]6- | [F,CF]4 z2 | [F,A,F]2 [F,A,F]2 [F,A,F]2 | %9
 z2 z[K:treble] B[K:bass] z G | F,2 [F,A,]2 [C,C]2 | [F,C]2 [F,A,]2 [B,,B,]2 | A,,4 B,,2 | %13
 C,4 C,2 | F,6- | F,4 z2 | B,2 [B,,B,]3 [B,,B,] | [B,F]4 [B,,B,]2 | z z/ E/ [B,D]2 [E,B,]2 | %19
 B,2 z2 z2 | E,4 D,2 | [C,A,]4 [B,,B,]2 | [F,A,F]2 [A,C]2 [B,C]2 | [F,A,]4 z2 | %24
 [E,B,]2 [E,B,]2 [E,G,]2 | [D,A,]4 D,2 | D,2 =E,2 ^F,2 | G,2 F,2 E,2 | [D,B,]4 [E,B,]2 | %29
 [F,B,]4 [F,A,]2 | [B,,B,]6- | [B,,B,]4 z2 |] %32
V:3
 x6 | x6 | x4[K:treble] x2 | x2[K:bass] x4 | x6 | x6 | x6 | x6 | x6 | %9
 [C,G,]4[K:treble][K:bass] C,2 | x6 | x6 | x6 | x6 | x6 | x6 | x6 | x6 | B,2 z2 z2 | %19
 D,>C, B,,2 D,2 | x6 | x6 | x6 | x6 | x6 | x6 | x6 | x6 | x6 | x6 | x6 | x6 |] %32
V:4
 x6 | x6 | x6 | x6 | x6 | x6 | x6 | x6 | x6 | x6 | x6 | x6 | x6 | x6 | x6 | x6 | x6 | x6 | %18
 [Fd]>c z2 G2 | F>E [F,D]2 [B,FB]2 | x6 | x6 | z2 F2 =E2 | F4 z2 | x6 | x6 | [Dc]6 | G2 z2 z2 | %28
 x6 | x6 | x6 | x6 |] %32

